MA4T1/111/aimg/rojo-h.svg

<svg clip-rule="evenodd" fill-rule="evenodd" stroke-linejoin="round" stroke-miterlimit="2" viewBox="0 0 180 40" xmlns="http://www.w3.org/2000/svg"><g fill-rule="nonzero"><path d="m0 .249c.514.25.924.472 1.352.651.348.146.528-.046.546-.386.011-.195-.011-.396-.052-.586-.168-.775-.335-.836-1.014-.357-.254.178-.483.391-.832.678m4.324-3.195c-.661.424-1.223.78-1.779 1.145-.35.231-.374.502-.243.919.187.593.255 1.231.321 1.855.073.7.305.954 1.044 1.009.69.052.918-.104 1.024-.845.186-1.306.226-2.61-.367-4.083m.988 4.876c2.08.171 4.056.397 6.039.479 2.346.096 4.708-.064 7.045.125 3.617.293 7.238.235 10.856.352 1.046.034 1.444-.298 1.328-1.331-.111-.982-.375-1.952-.632-2.91-.182-.68-.681-1.064-1.398-1.119-1.11-.086-2.22-.205-3.333-.235-1.552-.043-3.107-.027-4.661-.02-4.62.02-9.24.049-13.86.076-.279.001-.557.03-.836.027-.444-.004-.566.245-.473.621.316 1.268.103 2.53-.075 3.935m-2.552.706c-1.122-.657-2.26-1.289-3.36-1.982-.466-.294-.48-.525-.094-.822 1.259-.967 2.528-1.924 3.835-2.826.334-.23.819-.336 1.236-.337 3.386-.009 6.772.02 10.158.037.199.001.399-.005.598-.009 3.226-.053 6.452-.137 9.678-.147 1.35-.004 2.702.139 4.051.234.597.041 1.085.345 1.364.858.301.556.579 1.144.735 1.753.199.768.295 1.567.38 2.36.105.978-.361 1.605-1.34 1.787-.464.087-.951.067-1.428.063-1.951-.014-3.916.098-5.851-.093-4.175-.412-8.362-.141-12.536-.394-2.144-.131-4.29-.254-6.433-.393-.315-.02-.626-.112-.939-.17-.018.027-.036.054-.054.081" fill="#231f20" transform="matrix(5.55556 0 0 5.55556 5.37399816 19.1373818)"/><path d="m0 3.692c.178-1.405.391-2.667.076-3.936-.094-.375.028-.625.472-.62.279.003.557-.026.836-.027 4.62-.027 9.241-.056 13.861-.076 1.553-.007 3.108-.023 4.66.019 1.113.031 2.223.15 3.334.236.716.055 1.215.439 1.397 1.118.258.959.522 1.929.632 2.911.116 1.033-.281 1.365-1.328 1.331-3.618-.118-7.239-.06-10.856-.352-2.336-.189-4.699-.029-7.045-.125-1.982-.082-3.959-.308-6.039-.479" fill="#ed1c24" transform="matrix(5.55556 0 0 5.55556 34.88513288 9.35404064)"/><path d="m0-4.98c.594 1.473.554 2.777.368 4.083-.106.741-.335.897-1.024.845-.74-.055-.972-.309-1.045-1.009-.066-.625-.134-1.262-.32-1.856-.132-.416-.107-.688.243-.918.555-.365 1.117-.721 1.778-1.145" fill="#ffe5a6" transform="matrix(5.55556 0 0 5.55556 29.3962396 30.4429464)"/><path d="m0 .36c.349-.287.578-.5.832-.678.679-.479.846-.418 1.014.357.041.19.063.391.052.586-.018.34-.198.532-.546.386-.428-.179-.838-.401-1.352-.651" fill="#ed1c24" transform="matrix(5.55556 0 0 5.55556 5.37399816 18.52071464)"/><path d="m0 2.872c-3.263-.173-6.507-.713-9.65-1.607.419.153.881.092 1.322.028 2.018-.289 4.042-.554 6.056-.87.689-.108 1.327-.424 1.876.109.218.212.418 2.341.396 2.34" fill="#fff" transform="matrix(5.55556 0 0 5.55556 170.8407972 17.47626936)"/></g></svg>

<?xml version="1.0" encoding="UTF-8" standalone="no"?>
<!DOCTYPE svg PUBLIC "-//W3C//DTD SVG 1.1//EN" "http://www.w3.org/Graphics/SVG/1.1/DTD/svg11.dtd">
<svg width="100%" height="100%" viewBox="0 0 180 40" version="1.1" xmlns="http://www.w3.org/2000/svg" xmlns:xlink="http://www.w3.org/1999/xlink" xml:space="preserve" xmlns:serif="http://www.serif.com/" style="fill-rule:evenodd;clip-rule:evenodd;stroke-linejoin:round;stroke-miterlimit:2;">
    <g transform="matrix(1,0,0,1,-8089.43,-11830.6)">
        <g transform="matrix(5.55556,0,0,5.55556,7263.77,9566.93)">
            <g transform="matrix(1,0,0,1,149.586,410.905)">
                <path d="M0,0.249C0.514,0.499 0.924,0.721 1.352,0.9C1.7,1.046 1.88,0.854 1.898,0.514C1.909,0.319 1.887,0.118 1.846,-0.072C1.678,-0.847 1.511,-0.908 0.832,-0.429C0.578,-0.251 0.349,-0.038 0,0.249M4.324,-2.946C3.663,-2.522 3.101,-2.166 2.545,-1.801C2.195,-1.57 2.171,-1.299 2.302,-0.882C2.489,-0.289 2.557,0.349 2.623,0.973C2.696,1.673 2.928,1.927 3.667,1.982C4.357,2.034 4.585,1.878 4.691,1.137C4.877,-0.169 4.917,-1.473 4.324,-2.946M5.312,1.93C7.392,2.101 9.368,2.327 11.351,2.409C13.697,2.505 16.059,2.345 18.396,2.534C22.013,2.827 25.634,2.769 29.252,2.886C30.298,2.92 30.696,2.588 30.58,1.555C30.469,0.573 30.205,-0.397 29.948,-1.355C29.766,-2.035 29.267,-2.419 28.55,-2.474C27.44,-2.56 26.33,-2.679 25.217,-2.709C23.665,-2.752 22.11,-2.736 20.556,-2.729C15.936,-2.709 11.316,-2.68 6.696,-2.653C6.417,-2.652 6.139,-2.623 5.86,-2.626C5.416,-2.63 5.294,-2.381 5.387,-2.005C5.703,-0.737 5.49,0.525 5.312,1.93M2.76,2.636C1.638,1.979 0.5,1.347 -0.6,0.654C-1.066,0.36 -1.08,0.129 -0.694,-0.168C0.565,-1.135 1.834,-2.092 3.141,-2.994C3.475,-3.224 3.96,-3.33 4.377,-3.331C7.763,-3.34 11.149,-3.311 14.535,-3.294C14.734,-3.293 14.934,-3.299 15.133,-3.303C18.359,-3.356 21.585,-3.44 24.811,-3.45C26.161,-3.454 27.513,-3.311 28.862,-3.216C29.459,-3.175 29.947,-2.871 30.226,-2.358C30.527,-1.802 30.805,-1.214 30.961,-0.605C31.16,0.163 31.256,0.962 31.341,1.755C31.446,2.733 30.98,3.36 30.001,3.542C29.537,3.629 29.05,3.609 28.573,3.605C26.622,3.591 24.657,3.703 22.722,3.512C18.547,3.1 14.36,3.371 10.186,3.118C8.042,2.987 5.896,2.864 3.753,2.725C3.438,2.705 3.127,2.613 2.814,2.555C2.796,2.582 2.778,2.609 2.76,2.636" style="fill:rgb(35,31,32);fill-rule:nonzero;"/>
            </g>
        </g>
        <g transform="matrix(5.55556,0,0,5.55556,7263.77,9566.93)">
            <g transform="matrix(1,0,0,1,154.898,409.144)">
                <path d="M0,3.692C0.178,2.287 0.391,1.025 0.076,-0.244C-0.018,-0.619 0.104,-0.869 0.548,-0.864C0.827,-0.861 1.105,-0.89 1.384,-0.891C6.004,-0.918 10.625,-0.947 15.245,-0.967C16.798,-0.974 18.353,-0.99 19.905,-0.948C21.018,-0.917 22.128,-0.798 23.239,-0.712C23.955,-0.657 24.454,-0.273 24.636,0.406C24.894,1.365 25.158,2.335 25.268,3.317C25.384,4.35 24.987,4.682 23.94,4.648C20.322,4.53 16.701,4.588 13.084,4.296C10.748,4.107 8.385,4.267 6.039,4.171C4.057,4.089 2.08,3.863 0,3.692" style="fill:rgb(237,28,36);fill-rule:nonzero;"/>
            </g>
        </g>
        <g transform="matrix(5.55556,0,0,5.55556,7263.77,9566.93)">
            <g transform="matrix(1,0,0,1,153.91,412.94)">
                <path d="M0,-4.98C0.594,-3.507 0.554,-2.203 0.368,-0.897C0.262,-0.156 0.033,0 -0.656,-0.052C-1.396,-0.107 -1.628,-0.361 -1.701,-1.061C-1.767,-1.686 -1.835,-2.323 -2.021,-2.917C-2.153,-3.333 -2.128,-3.605 -1.778,-3.835C-1.223,-4.2 -0.661,-4.556 0,-4.98" style="fill:rgb(255,229,166);fill-rule:nonzero;"/>
            </g>
        </g>
        <g transform="matrix(5.55556,0,0,5.55556,7263.77,9566.93)">
            <g transform="matrix(1,0,0,1,149.586,410.794)">
                <path d="M0,0.36C0.349,0.073 0.578,-0.14 0.832,-0.318C1.511,-0.797 1.678,-0.736 1.846,0.039C1.887,0.229 1.909,0.43 1.898,0.625C1.88,0.965 1.7,1.157 1.352,1.011C0.924,0.832 0.514,0.61 0,0.36" style="fill:rgb(237,28,36);fill-rule:nonzero;"/>
            </g>
        </g>
        <g transform="matrix(5.55556,0,0,5.55556,7263.77,9566.93)">
            <g transform="matrix(1,0,0,1,179.37,410.606)">
                <path d="M0,2.872C-3.263,2.699 -6.507,2.159 -9.65,1.265C-9.231,1.418 -8.769,1.357 -8.328,1.293C-6.31,1.004 -4.286,0.739 -2.272,0.423C-1.583,0.315 -0.945,-0.001 -0.396,0.532C-0.178,0.744 0.022,2.873 0,2.872" style="fill:white;fill-rule:nonzero;"/>
            </g>
        </g>
    </g>
</svg>
